X:1157
T:Brudmarsj
T:Wedding march
C:anon.
O:Norway
A:Saltdal
N:After Peter Lindeman Kristiansen.
R:Wedding march
Z:Transcribed by Frank Nordberg - http://www.musicaviva.com
F:http://abc.musicaviva.com/tunes/norway/brurmarsj-saltdal01/brurmarsj-saltdal01-1.abc
M:C
L:1/8
Q:1/4=125
K:D
zA|"D"d2 d>d d2 (3fed|"A7"c2 c>c c2 A/B/c/d/|"A"e2 e>e e2 a/g/f/g/|"D"f2 d>d d2:|
|:zf|"D"a3b f>g "A7"e>f|"D"d2 "E"c/d/e/f/ "A7"e2 e>g|"D"f2 d>f "E7"a2 a>^g|"A7"a2 a>a a2 ze|
"A7"a2 e>e e2 a/g/f/e/|"D"f2 d>d d2 "B7"zf|"Em"e2 B>B "E7"B2 e/d/c/d/|"A7"c2 A>A A2 ze/f/|
"A7"g3a/g/ "D"f>e d>f|"A7"a2 a>g "D"f2 d2|"Em"e>f g>e "A7"d>c B>c|"D"d2 "A7"c/d/e/f/ "D"d2 "G"d>d|"D"d4z2:|
W:
W:
W:  From Musica Viva - http://www.musicaviva.com
W:  the Internet center for free sheet music downloads.
